!!!PDT:	1923
!!!LANG: Non-Tone
!!!LING_GROUP: Siouan
!!!REG: Dakotas
!!!COM: Anon.
!!!OTL: The Youngest Wife of the Chief
!!!ODT: <1918//
!!!MPN: Obsitamato [Bear-on-the-Flat, Flat Bear]
!!!MLC: Fort Berthold Reservation, North Dakota, United States of America
!! Song was recorded during either the summer of 1912, 1915, or 1918.
!!!AGN: monody
!!!SOCIAL_FUNCTION: Mandan and Hidatsa Miscellaneous Songs
!!!AMT: irregular
!!!RWG: Transcribed pitches, durations, and meters are only approximate.
!! Drum Tempo: MM76
!! Drum-rhythm: (4 4 4 4)
**kern
*ICvox
*Imale
*clefF4
*k[b-]
*M2/4
*MM76
=1-
8A
8c
8c
8A
=2
8c
8c
8A
8A
=3
8c
8c
8c
8A
=4
8A
8G
4F
=5
8G
8G
8G
8F
=6
8F
8F
8F
8F
=7
8F
8F
8C
8C
=8
8C
8C
8C
8C
*M3/4
=9
8C
8C
8C
8C
8C
8C
*M2/4
=10
8A
8c
8c
8A
=11
8c
8c
8A
8A
=12
16c
16c
8c
8c
8A
=13
16A
16A
8G
8F
8F
=14
16G
16G
8G
8G
16F
16F
*M3/4
=15
8F
8F
8F
8F
8F
8F
*M2/4
=16
8F
8F
8C
8C
=17
8C
8C
8C
8C
=18
2C
==
*-
!!!CNT: Mandan
!!!TXO: Mandan
!!!OCY: United States
!!!OCL: Frances Densmore
!!!YOR: Frances Densmore, "Mandan and Hidatsa Music",
!!!YOR: Bulletin 80, page 177, No. 109
!!!PPR: Smithsonian Institution, Bureau of American Ethnology
!!!PPR: Government Printing Office
!!!PDT: 1923
!!!PPP: Washington, DC, United States of America
!!!YEC: Electronic Copyright 2000 David Huron
!!!YER: August 2000
!!!YEN: United States of America
!!!ENC: David Huron
!!!RDT: August 18, 2000
!!!EEV: Release 1.0
!!!AIN: tom, vox
